src/images/cardBrands/amex.svg

<svg
  height="16"
  viewBox="0 0 24 16"
  width="24"
  xmlns="http://www.w3.org/2000/svg"
>
  <g fill="none" fill-rule="evenodd">
    <rect fill="#016fd0" height="16" rx="2" width="24" />
    <path
      d="m13.7640663 13.3938564v-5.70139231l10.1475359.00910497v1.57489503l-1.1728619 1.25339231 1.1728619 1.2648839v1.6083094h-1.8726188l-.9951823-1.0981657-.9881105 1.1023204z"
      fill="#fffffe"
    />
    <path
      d="m14.4418122 12.7687956v-4.448884h3.7722872v1.02488398h-2.550895v.69569062h2.4900774v1.0078232h-2.4900774v.6833149h2.550895v1.0371713z"
      fill="#016fd0"
    />
    <path
      d="m18.1952707 12.7687956 2.087337-2.2270055-2.0874254-2.2217901h1.6156464l1.2754917 1.41003315 1.2791161-1.41003315h1.5461657v.03500552l-2.0428729 2.18678458 2.0428729 2.1638895v.063116h-1.5617237l-1.2981216-1.4241768-1.2847735 1.4241768z"
      fill="#016fd0"
    />
    <path
      d="m14.2373481 2.6319558h2.4460552l.8591381 1.95085083v-1.95085083h3.0198453l.5207514 1.46156906.5225194-1.46156906h2.3059447v5.70139227h-12.1865193z"
      fill="#fffffe"
    />
    <g fill="#016fd0">
      <path d="m14.7004641 3.25135912-1.9740111 4.44517127h1.3539006l.3724199-.89016575h2.0179447l.3721547.89016575h1.3875801l-1.96579-4.44517127zm.1696353 2.55743646.592-1.41507182.5915581 1.41507182z" />
      <path d="m18.2119779 7.69573481v-4.44508288l1.903116.00654144.9792707 2.73272928.9856354-2.73927072h1.8316022v4.44508288l-1.1786077.01043094v-3.05334807l-1.1125746 3.04291713h-1.0758011l-1.1356464-3.05334807v3.05334807z" />
    </g>
  </g>
</svg>

<svg xmlns="http://www.w3.org/2000/svg" viewBox="0 0 24 16"><rect width="24" height="16" rx="2" fill="#016fd0"/><path d="M13.76407,13.39386V7.69246l10.14753.00911V9.27646l-1.17286,1.2534,1.17286,1.26488v1.60831H22.039l-.99518-1.09817-.98811,1.10233Z" fill="#fffffe" fill-rule="evenodd"/><path d="M14.44181,12.7688V8.31991H18.2141V9.3448H15.66321v.69569h2.49007v1.00782H15.6632v.68332h2.5509V12.7688Z" fill="#016fd0" fill-rule="evenodd"/><path d="M18.19527,12.7688l2.08734-2.227L18.19518,8.32h1.61565l1.27549,1.41,1.27912-1.41H23.9116v.035l-2.04287,2.18678,2.04287,2.16389v.06312H22.34988l-1.29812-1.42418L19.767,12.7688Z" fill="#016fd0" fill-rule="evenodd"/><path d="M14.23735,2.632h2.446l.85914,1.95085V2.632h3.01985l.52075,1.46156L21.60566,2.632H23.9116V8.33335H11.72508Z" fill="#fffffe" fill-rule="evenodd"/><path d="M14.70046,3.25136l-1.974,4.44517h1.3539l.37242-.89017h2.018l.37215.89017h1.38758L16.26466,3.25136ZM14.8701,5.8088l.592-1.41508.59156,1.41508Z" fill="#016fd0" fill-rule="evenodd"/><path d="M18.212,7.69573V3.25065l1.90311.00654.97927,2.73273L22.08,3.25065h1.8316V7.69573L22.733,7.70617V4.65282L21.62042,7.69573h-1.0758L19.409,4.64239V7.69573Z" fill="#016fd0" fill-rule="evenodd"/></svg>
